X: 42590
T: Where Is The Cat?
R: slide
M: 12/8
K: Cmajor
|:G>AG c2 e d<dA c2 z|G>AG c2 d ecA A2 G|
G>AG c2 e d<dA c2 e|g>fe f2 d ecA A2 G:|
|:gfe f2 d edc f2 d|gfe f2 d ecA A2 G|
gfe f2 d edc f2 d|G>AG f2 d ecA A2 G:|

